; G-Code generated by Simplify3D(TM) Version 2.2.0
; Feb 15, 2015 at 3:51:14 PM
; Settings Summary
;   processName,Process1
;   applyToModels,carriage_flex
;   profileLabel,Pet2015Feb.fff
;   printMaterial,Nylon
;   printQuality,Medium
;   extruderName,Primary Extruder
;   extruderToolheadNumber,0
;   extruderDiameter,0.6
;   extruderAutoWidth,0
;   extruderWidth,0.7
;   extrusionMultiplier,1
;   extruderUseRetract,1
;   extruderRetractionDistance,8.4
;   extruderExtraRestartDistance,0.05
;   extruderRetractionZLift,0.1
;   extruderRetractionSpeed,3000
;   extruderUseCoasting,0
;   extruderCoastingDistance,1
;   extruderUseWipe,0
;   extruderWipeDistance,5
;   primaryExtruder,0
;   layerHeight,0.2
;   topSolidLayers,5
;   bottomSolidLayers,4
;   perimeterOutlines,4
;   printPerimetersInsideOut,1
;   startPointOption,2
;   startPointOriginX,0
;   startPointOriginY,0
;   startPointOriginZ,300
;   sequentialIslands,0
;   spiralVaseMode,0
;   firstLayerHeightPercentage,140
;   firstLayerWidthPercentage,100
;   firstLayerUnderspeed,0.15
;   useRaft,0
;   raftExtruder,0
;   raftLayers,3
;   raftOffset,3
;   raftSeparationDistance,0.14
;   raftInfill,85
;   disableRaftBaseLayers,0
;   useSkirt,1
;   skirtExtruder,0
;   skirtLayers,1
;   skirtOutlines,4
;   skirtOffset,8
;   infillExtruder,0
;   externalInfillPattern,Rectilinear
;   infillPercentage,30
;   outlineOverlapPercentage,50
;   infillExtrusionWidthPercentage,150
;   minInfillLength,5
;   infillLayerInterval,1
;   randomInfillStartPoint,1
;   infillAngles,45,-45
;   generateSupport,0
;   supportExtruder,0
;   supportInfill,30
;   supportExtraInflation,0
;   denseSupportLayers,0
;   denseSupportInfill,70
;   supportLayerInterval,1
;   supportHorizontalPartOffset,0.3
;   supportUpperSeparationLayers,1
;   supportLowerSeparationLayers,1
;   supportGridSpacing,4
;   maxOverhangAngle,45
;   supportAngles,0
;   temperatureName,Primary Extruder,Heated Bed
;   temperatureNumber,0,1
;   temperatureSetpointCount,2,1
;   temperatureSetpointLayers,1,2,1
;   temperatureSetpointTemperatures,230,235,80
;   temperatureStabilizeAtStartup,1,0
;   temperatureHeatedBed,0,1
;   temperatureRelayBetweenLayers,0,0
;   temperatureRelayBetweenLoops,0,0
;   fanLayers,1
;   fanSpeeds,0
;   blipFanToFullPower,1
;   adjustSpeedForCooling,1
;   minSpeedLayerTime,15
;   minCoolingSpeedSlowdown,20
;   increaseFanForCooling,0
;   minFanLayerTime,60
;   maxCoolingFanSpeed,100
;   increaseFanForBridging,0
;   bridgingFanSpeed,100
;   use5D,1
;   relativeEdistances,0
;   allowEaxisZeroing,1
;   independentExtruderAxes,0
;   includeM10123,0
;   stickySupport,1
;   detectArcs,0
;   arcReplaceG2G3,0
;   arcRadialCompensation,1
;   gcodeXoffset,0
;   gcodeYoffset,0
;   gcodeZoffset,0
;   overrideMachineDefinition,0
;   machineTypeOverride,1
;   strokeXoverride,108
;   strokeYoverride,108
;   strokeZoverride,241
;   originOffsetXoverride,54
;   originOffsetYoverride,54
;   originOffsetZoverride,0
;   homeXdirOverride,0
;   homeYdirOverride,0
;   homeZdirOverride,1
;   flipXoverride,1
;   flipYoverride,-1
;   flipZoverride,1
;   startingGcode,G28 ; home all axes
;   layerChangeGcode,
;   toolChangeGcode,
;   endingGcode,M104 S0 ; turn off extruder,M140 S0 ; turn off bed,G28 ; home axes,M84 ; disable motors
;   createX3G,0
;   celebration,0
;   celebrationSong,Random Song
;   createMB5G,0
;   postProcessing,
;   defaultSpeed,3000
;   outlineUnderspeed,0.5
;   solidInfillUnderspeed,0.8
;   supportUnderspeed,0.8
;   rapidXYspeed,6000
;   rapidZspeed,1200
;   minBridgingArea,50
;   bridgingExtrusionMultiplier,0.95
;   bridgingSpeedMultiplier,0.7
;   filamentDiameter,1.75
;   filamentPricePerKg,46
;   useMinPrintHeight,0
;   minPrintHeight,0
;   useMaxPrintHeight,0
;   maxPrintHeight,0
;   useDiaphragm,1
;   diaphragmLayerInterval,1
;   robustSlicing,1
;   mergeAllIntoSolid,0
;   onlyRetractWhenCrossingOutline,1
;   retractBetweenLayers,1
;   useRetractionMinTravel,0
;   retractionMinTravel,3
;   useRetractionOozeRate,0
;   retractionOozeRate,6000
;   onlyWipeOutlines,1
;   toolChangeRetractionDistance,12
;   toolChangeExtraRestartDistance,-0.5
;   toolChangeRetractionSpeed,600
;   allowThinWallGapFill,1
;   thinWallAllowedOverlapPercentage,10
G90
M82
M106 S0
M140 S80
M104 S230 T0
M109 S230 T0
G28 ; home all axes
G92 E0
G1 E-8.4 F3000
G1 Z0.38 F1200
; layer 1, Z = 0.28
T0
; tool H0.28 W0.7
G1 X14.872 Y31.973 F6000
G1 Z0.28 F1200
G1 E0.05 F900
G92 E0
G1 X14.853 Y32.001 E0.0027 F600
G1 X14.714 Y32.212 E0.0234
G1 X14.695 Y32.24 E0.0261
G1 X13.691 Y33.673 E0.1687
G1 X13.626 Y33.758 E0.1774
G1 X13.109 Y34.375 E0.243
G1 X13.036 Y34.454 E0.2518
G1 X11.604 Y35.886 E0.4168
G1 X11.525 Y35.959 E0.4255
G1 X10.908 Y36.476 E0.4912
G1 X10.823 Y36.541 E0.4999
G1 X9.164 Y37.703 E0.6649
G1 X9.074 Y37.761 E0.6737
G1 X8.376 Y38.164 E0.7393
G1 X8.281 Y38.213 E0.748
G1 X6.445 Y39.069 E0.9131
G1 X6.346 Y39.11 E0.9218
G1 X5.59 Y39.385 E0.9874
G1 X5.488 Y39.417 E0.9961
G1 X3.532 Y39.942 E1.1612
G1 X3.427 Y39.965 E1.1699
G1 X2.633 Y40.105 E1.2356
G1 X2.527 Y40.119 E1.2443
G1 X0.509 Y40.295 E1.4094
G1 X0.403 Y40.3 E1.4181
G1 X-0.403 Y40.3 E1.4837
G1 X-0.509 Y40.295 E1.4924
G1 X-2.527 Y40.119 E1.6575
G1 X-2.633 Y40.105 E1.6662
G1 X-3.427 Y39.965 E1.7319
G1 X-3.532 Y39.942 E1.7406
G1 X-5.488 Y39.417 E1.9056
G1 X-5.59 Y39.385 E1.9143
G1 X-6.347 Y39.11 E1.9799
G1 X-6.445 Y39.069 E1.9886
G1 X-8.281 Y38.213 E2.1537
G1 X-8.376 Y38.164 E2.1624
G1 X-9.074 Y37.761 E2.2281
G1 X-9.164 Y37.703 E2.2368
G1 X-10.823 Y36.541 E2.4019
G1 X-10.908 Y36.476 E2.4106
G1 X-11.525 Y35.959 E2.4762
G1 X-11.604 Y35.886 E2.4849
G1 X-13.036 Y34.454 E2.65
G1 X-13.109 Y34.375 E2.6587
G1 X-13.626 Y33.758 E2.7243
G1 X-13.691 Y33.673 E2.733
G1 X-14.69 Y32.247 E2.8749
G1 X-14.709 Y32.219 E2.8777
G1 X-14.848 Y32.008 E2.8983
G1 X-14.867 Y31.98 E2.901
G1 X-40.682 Y-9.569 E6.8871
G1 X-40.719 Y-9.633 E6.893
G1 X-40.982 Y-10.118 E6.938
G1 X-41.015 Y-10.184 E6.944
G1 X-42.038 Y-12.379 E7.1413
G1 X-42.079 Y-12.477 E7.15
G1 X-42.354 Y-13.234 E7.2157
G1 X-42.387 Y-13.336 E7.2244
G1 X-43.046 Y-15.798 E7.432
G1 X-43.069 Y-15.902 E7.4408
G1 X-43.209 Y-16.696 E7.5064
G1 X-43.223 Y-16.802 E7.5151
G1 X-43.445 Y-19.34 E7.7228
G1 X-43.45 Y-19.447 E7.7315
G1 X-43.45 Y-20.253 E7.7971
G1 X-43.445 Y-20.36 E7.8059
G1 X-43.223 Y-22.898 E8.0135
G1 X-43.209 Y-23.004 E8.0223
G1 X-43.069 Y-23.798 E8.0879
G1 X-43.046 Y-23.902 E8.0966
G1 X-42.387 Y-26.364 E8.3043
G1 X-42.354 Y-26.466 E8.313
G1 X-42.079 Y-27.223 E8.3786
G1 X-42.038 Y-27.321 E8.3873
G1 X-40.961 Y-29.631 E8.595
G1 X-40.912 Y-29.726 E8.6037
G1 X-40.509 Y-30.424 E8.6694
G1 X-40.451 Y-30.514 E8.6781
G1 X-38.989 Y-32.602 E8.8858
G1 X-38.924 Y-32.687 E8.8945
G1 X-38.407 Y-33.303 E8.9601
G1 X-38.335 Y-33.382 E8.9688
G1 X-36.533 Y-35.184 E9.1765
G1 X-36.454 Y-35.257 E9.1852
G1 X-35.837 Y-35.774 E9.2509
G1 X-35.752 Y-35.84 E9.2596
G1 X-33.664 Y-37.301 E9.4673
G1 X-33.574 Y-37.359 E9.476
G1 X-32.876 Y-37.762 E9.5416
G1 X-32.781 Y-37.811 E9.5503
G1 X-30.472 Y-38.888 E9.758
G1 X-30.373 Y-38.929 E9.7667
G1 X-29.616 Y-39.204 E9.8323
G1 X-29.514 Y-39.237 E9.8411
G1 X-27.052 Y-39.896 E10.0487
G1 X-26.948 Y-39.919 E10.0574
G1 X-26.154 Y-40.059 E10.1231
G1 X-26.048 Y-40.073 E10.1318
G1 X-23.71 Y-40.278 E10.3231
G1 X-23.657 Y-40.281 E10.3274
G1 X-23.255 Y-40.299 E10.3602
G1 X-23.201 Y-40.3 E10.3646
G1 X23.201 Y-40.3 E14.1458
G1 X23.255 Y-40.299 E14.1502
G1 X23.657 Y-40.281 E14.183
G1 X23.71 Y-40.278 E14.1873
G1 X26.048 Y-40.073 E14.3786
G1 X26.154 Y-40.059 E14.3873
G1 X26.948 Y-39.919 E14.4529
G1 X27.052 Y-39.896 E14.4616
G1 X29.514 Y-39.237 E14.6693
G1 X29.616 Y-39.204 E14.678
G1 X30.373 Y-38.929 E14.7437
G1 X30.472 Y-38.888 E14.7524
G1 X32.781 Y-37.811 E14.9601
G1 X32.876 Y-37.762 E14.9688
G1 X33.574 Y-37.359 E15.0344
G1 X33.664 Y-37.301 E15.0431
G1 X35.752 Y-35.84 E15.2508
G1 X35.837 Y-35.774 E15.2595
G1 X36.454 Y-35.257 E15.3252
G1 X36.533 Y-35.184 E15.3339
G1 X38.335 Y-33.382 E15.5416
G1 X38.407 Y-33.303 E15.5503
G1 X38.924 Y-32.687 E15.6159
G1 X38.989 Y-32.602 E15.6246
G1 X40.451 Y-30.514 E15.8323
G1 X40.509 Y-30.424 E15.841
G1 X40.912 Y-29.726 E15.9067
G1 X40.961 Y-29.631 E15.9154
G1 X42.038 Y-27.321 E16.1231
G1 X42.079 Y-27.223 E16.1318
G1 X42.354 Y-26.466 E16.1974
G1 X42.387 Y-26.364 E16.2061
G1 X43.046 Y-23.902 E16.4138
G1 X43.069 Y-23.798 E16.4225
G1 X43.209 Y-23.005 E16.4881
G1 X43.223 Y-22.898 E16.4968
G1 X43.445 Y-20.36 E16.7045
G1 X43.45 Y-20.253 E16.7132
G1 X43.45 Y-19.447 E16.7789
G1 X43.445 Y-19.34 E16.7876
G1 X43.223 Y-16.802 E16.9953
G1 X43.209 Y-16.695 E17.004
G1 X43.069 Y-15.902 E17.0696
G1 X43.046 Y-15.798 E17.0783
G1 X42.387 Y-13.336 E17.286
G1 X42.354 Y-13.234 E17.2947
G1 X42.079 Y-12.477 E17.3603
G1 X42.038 Y-12.379 E17.369
G1 X41.015 Y-10.184 E17.5664
G1 X40.982 Y-10.118 E17.5723
G1 X40.719 Y-9.633 E17.6173
G1 X40.682 Y-9.57 E17.6233
G1 X14.872 Y31.973 E21.6086
G1 X14.28 Y31.599 F6000
G92 E0
G1 X14.267 Y31.619 E0.002 F600
G1 X14.132 Y31.823 E0.0218
G1 X14.119 Y31.843 E0.0238
G1 X13.127 Y33.259 E0.1647
G1 X13.08 Y33.32 E0.1709
G1 X12.582 Y33.913 E0.2341
G1 X12.531 Y33.97 E0.2403
G1 X11.12 Y35.38 E0.4029
G1 X11.064 Y35.432 E0.4091
G1 X10.47 Y35.93 E0.4722
G1 X10.409 Y35.977 E0.4785
G1 X8.775 Y37.121 E0.641
G1 X8.711 Y37.162 E0.6473
G1 X8.039 Y37.55 E0.7105
G1 X7.971 Y37.585 E0.7167
G1 X6.163 Y38.428 E0.8792
G1 X6.093 Y38.457 E0.8855
G1 X5.365 Y38.722 E0.9486
G1 X5.292 Y38.745 E0.9548
G1 X3.365 Y39.262 E1.1174
G1 X3.291 Y39.278 E1.1236
G1 X2.527 Y39.413 E1.1868
G1 X2.451 Y39.423 E1.193
G1 X0.464 Y39.597 E1.3556
G1 X0.387 Y39.6 E1.3618
G1 X-0.387 Y39.6 E1.4249
G1 X-0.464 Y39.597 E1.4311
G1 X-2.451 Y39.423 E1.5937
G1 X-2.527 Y39.413 E1.6
G1 X-3.291 Y39.278 E1.6631
G1 X-3.365 Y39.262 E1.6694
G1 X-5.292 Y38.745 E1.8319
G1 X-5.365 Y38.722 E1.8382
G1 X-6.093 Y38.457 E1.9013
G1 X-6.163 Y38.428 E1.9075
G1 X-7.971 Y37.585 E2.0701
G1 X-8.039 Y37.55 E2.0763
G1 X-8.711 Y37.162 E2.1395
G1 X-8.775 Y37.121 E2.1457
G1 X-10.409 Y35.977 E2.3083
G1 X-10.47 Y35.93 E2.3145
G1 X-11.064 Y35.432 E2.3776
G1 X-11.12 Y35.381 E2.3839
G1 X-12.531 Y33.97 E2.5464
G1 X-12.582 Y33.914 E2.5526
G1 X-13.08 Y33.32 E2.6158
G1 X-13.127 Y33.259 E2.622
G1 X-14.114 Y31.85 E2.7623
G1 X-14.127 Y31.83 E2.7642
G1 X-14.262 Y31.626 E2.7841
G1 X-14.275 Y31.606 E2.786
G1 X-40.082 Y-9.93 E6.7708
G1 X-40.108 Y-9.975 E6.7751
G1 X-40.361 Y-10.442 E6.8184
G1 X-40.385 Y-10.489 E6.8226
G1 X-41.397 Y-12.661 E7.0179
G1 X-41.426 Y-12.731 E7.0241
G1 X-41.691 Y-13.459 E7.0872
G1 X-41.714 Y-13.532 E7.0934
G1 X-42.366 Y-15.964 E7.2986
G1 X-42.383 Y-16.039 E7.3048
G1 X-42.517 Y-16.802 E7.368
G1 X-42.527 Y-16.878 E7.3742
G1 X-42.747 Y-19.386 E7.5794
G1 X-42.75 Y-19.463 E7.5856
G1 X-42.75 Y-20.237 E7.6488
G1 X-42.747 Y-20.314 E7.655
G1 X-42.527 Y-22.822 E7.8602
G1 X-42.517 Y-22.898 E7.8664
G1 X-42.383 Y-23.661 E7.9296
G1 X-42.366 Y-23.736 E7.9358
G1 X-41.714 Y-26.168 E8.141
G1 X-41.691 Y-26.241 E8.1472
G1 X-41.426 Y-26.969 E8.2103
G1 X-41.397 Y-27.039 E8.2166
G1 X-40.333 Y-29.322 E8.4218
G1 X-40.298 Y-29.389 E8.428
G1 X-39.91 Y-30.061 E8.4912
G1 X-39.869 Y-30.125 E8.4974
G1 X-38.425 Y-32.188 E8.7026
G1 X-38.378 Y-32.248 E8.7088
G1 X-37.88 Y-32.842 E8.7719
G1 X-37.829 Y-32.898 E8.7781
G1 X-36.048 Y-34.679 E8.9833
G1 X-35.992 Y-34.73 E8.9895
G1 X-35.398 Y-35.228 E9.0527
G1 X-35.338 Y-35.275 E9.0589
G1 X-33.275 Y-36.719 E9.2641
G1 X-33.211 Y-36.76 E9.2704
G1 X-32.539 Y-37.148 E9.3335
G1 X-32.472 Y-37.183 E9.3397
G1 X-30.19 Y-38.247 E9.5449
G1 X-30.119 Y-38.276 E9.5511
G1 X-29.391 Y-38.541 E9.6143
G1 X-29.318 Y-38.564 E9.6205
G1 X-26.886 Y-39.216 E9.8257
G1 X-26.811 Y-39.233 E9.8319
G1 X-26.048 Y-39.367 E9.8951
G1 X-25.972 Y-39.377 E9.9013
G1 X-23.657 Y-39.58 E10.0907
G1 X-23.619 Y-39.582 E10.0938
G1 X-23.232 Y-39.599 E10.1254
G1 X-23.194 Y-39.6 E10.1285
G1 X23.194 Y-39.6 E13.9084
G1 X23.232 Y-39.599 E13.9116
G1 X23.619 Y-39.582 E13.9431
G1 X23.657 Y-39.58 E13.9462
G1 X25.972 Y-39.377 E14.1356
G1 X26.048 Y-39.367 E14.1418
G1 X26.811 Y-39.233 E14.205
G1 X26.886 Y-39.216 E14.2112
G1 X29.318 Y-38.564 E14.4164
G1 X29.391 Y-38.541 E14.4226
G1 X30.119 Y-38.276 E14.4858
G1 X30.19 Y-38.247 E14.492
G1 X32.472 Y-37.183 E14.6972
G1 X32.539 Y-37.148 E14.7034
G1 X33.211 Y-36.76 E14.7666
G1 X33.275 Y-36.719 E14.7728
G1 X35.338 Y-35.275 E14.978
G1 X35.398 Y-35.228 E14.9842
G1 X35.992 Y-34.73 E15.0474
G1 X36.048 Y-34.679 E15.0536
G1 X37.829 Y-32.898 E15.2588
G1 X37.88 Y-32.842 E15.265
G1 X38.378 Y-32.248 E15.3281
G1 X38.425 Y-32.188 E15.3343
G1 X39.869 Y-30.125 E15.5395
G1 X39.91 Y-30.061 E15.5458
G1 X40.298 Y-29.389 E15.6089
G1 X40.333 Y-29.322 E15.6152
G1 X41.397 Y-27.039 E15.8204
G1 X41.426 Y-26.969 E15.8266
G1 X41.691 Y-26.241 E15.8897
G1 X41.714 Y-26.168 E15.8959
G1 X42.366 Y-23.736 E16.1011
G1 X42.383 Y-23.661 E16.1073
G1 X42.517 Y-22.898 E16.1705
G1 X42.527 Y-22.822 E16.1767
G1 X42.747 Y-20.314 E16.3819
G1 X42.75 Y-20.237 E16.3881
G1 X42.75 Y-19.463 E16.4513
G1 X42.747 Y-19.386 E16.4575
G1 X42.527 Y-16.878 E16.6627
G1 X42.517 Y-16.802 E16.6689
G1 X42.383 Y-16.039 E16.7321
G1 X42.366 Y-15.964 E16.7383
G1 X41.714 Y-13.532 E16.9435
G1 X41.691 Y-13.459 E16.9497
G1 X41.426 Y-12.731 E17.0128
G1 X41.397 Y-12.661 E17.019
G1 X40.385 Y-10.489 E17.2143
G1 X40.361 Y-10.442 E17.2186
G1 X40.108 Y-9.975 E17.2618
G1 X40.082 Y-9.93 E17.2661
G1 X14.28 Y31.599 E21.2502
G1 X13.687 Y31.226 F6000
G92 E0
G1 X13.68 Y31.238 E0.0012 F600
G1 X13.551 Y31.433 E0.0203
G1 X13.543 Y31.445 E0.0214
G1 X12.562 Y32.845 E0.1607
G1 X12.534 Y32.882 E0.1645
G1 X12.056 Y33.452 E0.2251
G1 X12.025 Y33.486 E0.2288
G1 X10.636 Y34.875 E0.3889
G1 X10.602 Y34.906 E0.3927
G1 X10.032 Y35.384 E0.4533
G1 X9.995 Y35.412 E0.457
G1 X8.386 Y36.539 E0.6171
G1 X8.347 Y36.564 E0.6209
G1 X7.702 Y36.936 E0.6816
G1 X7.662 Y36.957 E0.6853
G1 X5.881 Y37.787 E0.8454
G1 X5.839 Y37.805 E0.8491
G1 X5.14 Y38.059 E0.9097
G1 X5.096 Y38.073 E0.9135
G1 X3.199 Y38.582 E1.0735
G1 X3.154 Y38.591 E1.0773
G1 X2.42 Y38.721 E1.138
G1 X2.375 Y38.727 E1.1417
G1 X0.418 Y38.898 E1.3018
G1 X0.372 Y38.9 E1.3055
G1 X-0.372 Y38.9 E1.3662
G1 X-0.418 Y38.898 E1.3699
G1 X-2.375 Y38.727 E1.53
G1 X-2.42 Y38.721 E1.5337
G1 X-3.154 Y38.591 E1.5944
G1 X-3.199 Y38.582 E1.5982
G1 X-5.096 Y38.073 E1.7583
G1 X-5.14 Y38.059 E1.762
G1 X-5.839 Y37.805 E1.8226
G1 X-5.881 Y37.787 E1.8263
G1 X-7.662 Y36.957 E1.9864
G1 X-7.702 Y36.936 E1.9902
G1 X-8.347 Y36.564 E2.0508
G1 X-8.386 Y36.539 E2.0546
G1 X-9.995 Y35.412 E2.2147
G1 X-10.032 Y35.384 E2.2184
G1 X-10.602 Y34.906 E2.2791
G1 X-10.636 Y34.875 E2.2828
G1 X-12.025 Y33.486 E2.4429
G1 X-12.056 Y33.452 E2.4466
G1 X-12.534 Y32.882 E2.5073
G1 X-12.562 Y32.845 E2.511
G1 X-13.538 Y31.452 E2.6496
G1 X-13.546 Y31.44 E2.6508
G1 X-13.675 Y31.245 E2.6698
G1 X-13.683 Y31.233 E2.671
G1 X-39.482 Y-10.29 E6.6546
G1 X-39.498 Y-10.318 E6.6571
G1 X-39.741 Y-10.766 E6.6987
G1 X-39.755 Y-10.794 E6.7012
G1 X-40.756 Y-12.943 E6.8944
G1 X-40.774 Y-12.985 E6.8981
G1 X-41.028 Y-13.684 E6.9588
G1 X-41.042 Y-13.728 E6.9625
G1 X-41.686 Y-16.131 E7.1652
G1 X-41.696 Y-16.175 E7.1689
G1 X-41.825 Y-16.909 E7.2296
G1 X-41.831 Y-16.954 E7.2333
G1 X-42.048 Y-19.432 E7.436
G1 X-42.05 Y-19.478 E7.4398
G1 X-42.05 Y-20.222 E7.5004
G1 X-42.048 Y-20.268 E7.5042
G1 X-41.831 Y-22.746 E7.7069
G1 X-41.825 Y-22.791 E7.7106
G1 X-41.696 Y-23.525 E7.7713
G1 X-41.686 Y-23.569 E7.775
G1 X-41.042 Y-25.972 E7.9777
G1 X-41.028 Y-26.016 E7.9814
G1 X-40.774 Y-26.715 E8.0421
G1 X-40.756 Y-26.757 E8.0458
G1 X-39.705 Y-29.012 E8.2485
G1 X-39.684 Y-29.053 E8.2522
G1 X-39.312 Y-29.697 E8.3129
G1 X-39.287 Y-29.736 E8.3167
G1 X-37.86 Y-31.774 E8.5194
G1 X-37.832 Y-31.81 E8.5231
G1 X-37.354 Y-32.38 E8.5837
G1 X-37.323 Y-32.414 E8.5875
G1 X-35.564 Y-34.173 E8.7902
G1 X-35.53 Y-34.204 E8.7939
G1 X-34.96 Y-34.682 E8.8546
G1 X-34.924 Y-34.71 E8.8583
G1 X-32.886 Y-36.137 E9.061
G1 X-32.847 Y-36.162 E9.0647
G1 X-32.203 Y-36.534 E9.1254
G1 X-32.162 Y-36.555 E9.1291
G1 X-29.908 Y-37.606 E9.3318
G1 X-29.865 Y-37.624 E9.3356
G1 X-29.166 Y-37.878 E9.3962
G1 X-29.122 Y-37.892 E9.4
G1 X-26.719 Y-38.536 E9.6027
G1 X-26.675 Y-38.546 E9.6064
G1 X-25.941 Y-38.675 E9.667
G1 X-25.896 Y-38.681 E9.6708
