; G-Code generated by Simplify3D(TM) Version 2.2.0
; Feb 14, 2015 at 9:04:44 AM
; Settings Summary
;   processName,Process1
;   applyToModels,sizeblock
;   profileLabel,Pet2015Feb.fff
;   printMaterial,ABS
;   printQuality,Medium
;   extruderName,Primary Extruder
;   extruderToolheadNumber,0
;   extruderDiameter,0.6
;   extruderAutoWidth,0
;   extruderWidth,0.7
;   extrusionMultiplier,1
;   extruderUseRetract,1
;   extruderRetractionDistance,8.4
;   extruderExtraRestartDistance,0.05
;   extruderRetractionZLift,0.1
;   extruderRetractionSpeed,3000
;   extruderUseCoasting,0
;   extruderCoastingDistance,1
;   extruderUseWipe,0
;   extruderWipeDistance,5
;   primaryExtruder,0
;   layerHeight,0.4
;   topSolidLayers,5
;   bottomSolidLayers,4
;   perimeterOutlines,4
;   printPerimetersInsideOut,1
;   startPointOption,2
;   startPointOriginX,0
;   startPointOriginY,0
;   startPointOriginZ,300
;   sequentialIslands,0
;   spiralVaseMode,0
;   firstLayerHeightPercentage,140
;   firstLayerWidthPercentage,100
;   firstLayerUnderspeed,0.12
;   useRaft,0
;   raftExtruder,0
;   raftLayers,3
;   raftOffset,3
;   raftSeparationDistance,0.14
;   raftInfill,85
;   disableRaftBaseLayers,0
;   useSkirt,1
;   skirtExtruder,0
;   skirtLayers,1
;   skirtOutlines,4
;   skirtOffset,8
;   infillExtruder,0
;   externalInfillPattern,Rectilinear
;   infillPercentage,30
;   outlineOverlapPercentage,50
;   infillExtrusionWidthPercentage,150
;   minInfillLength,5
;   infillLayerInterval,1
;   randomInfillStartPoint,1
;   infillAngles,45,-45
;   generateSupport,0
;   supportExtruder,0
;   supportInfill,30
;   supportExtraInflation,0
;   denseSupportLayers,0
;   denseSupportInfill,70
;   supportLayerInterval,1
;   supportHorizontalPartOffset,0.3
;   supportUpperSeparationLayers,1
;   supportLowerSeparationLayers,1
;   supportGridSpacing,4
;   maxOverhangAngle,45
;   supportAngles,0
;   temperatureName,Primary Extruder,Heated Bed
;   temperatureNumber,0,1
;   temperatureSetpointCount,2,1
;   temperatureSetpointLayers,1,2,1
;   temperatureSetpointTemperatures,235,245,65
;   temperatureStabilizeAtStartup,1,0
;   temperatureHeatedBed,0,1
;   temperatureRelayBetweenLayers,0,0
;   temperatureRelayBetweenLoops,0,0
;   fanLayers,1
;   fanSpeeds,0
;   blipFanToFullPower,1
;   adjustSpeedForCooling,1
;   minSpeedLayerTime,15
;   minCoolingSpeedSlowdown,20
;   increaseFanForCooling,0
;   minFanLayerTime,60
;   maxCoolingFanSpeed,100
;   increaseFanForBridging,0
;   bridgingFanSpeed,100
;   use5D,1
;   relativeEdistances,0
;   allowEaxisZeroing,1
;   independentExtruderAxes,0
;   includeM10123,0
;   stickySupport,1
;   detectArcs,0
;   arcReplaceG2G3,0
;   arcRadialCompensation,1
;   gcodeXoffset,0
;   gcodeYoffset,0
;   gcodeZoffset,0
;   overrideMachineDefinition,0
;   machineTypeOverride,1
;   strokeXoverride,108
;   strokeYoverride,108
;   strokeZoverride,241
;   originOffsetXoverride,54
;   originOffsetYoverride,54
;   originOffsetZoverride,0
;   homeXdirOverride,0
;   homeYdirOverride,0
;   homeZdirOverride,1
;   flipXoverride,1
;   flipYoverride,-1
;   flipZoverride,1
;   startingGcode,G28 ; home all axes
;   layerChangeGcode,
;   toolChangeGcode,
;   endingGcode,M104 S0 ; turn off extruder,M140 S0 ; turn off bed,G28 ; home axes,M84 ; disable motors
;   createX3G,0
;   celebration,0
;   celebrationSong,Random Song
;   createMB5G,0
;   postProcessing,
;   defaultSpeed,6000
;   outlineUnderspeed,0.25
;   solidInfillUnderspeed,0.8
;   supportUnderspeed,0.8
;   rapidXYspeed,6000
;   rapidZspeed,1200
;   minBridgingArea,50
;   bridgingExtrusionMultiplier,0.95
;   bridgingSpeedMultiplier,0.7
;   filamentDiameter,1.75
;   filamentPricePerKg,46
;   useMinPrintHeight,0
;   minPrintHeight,0
;   useMaxPrintHeight,0
;   maxPrintHeight,0
;   useDiaphragm,1
;   diaphragmLayerInterval,1
;   robustSlicing,1
;   mergeAllIntoSolid,0
;   onlyRetractWhenCrossingOutline,1
;   retractBetweenLayers,1
;   useRetractionMinTravel,0
;   retractionMinTravel,3
;   useRetractionOozeRate,0
;   retractionOozeRate,6000
;   onlyWipeOutlines,1
;   toolChangeRetractionDistance,12
;   toolChangeExtraRestartDistance,-0.5
;   toolChangeRetractionSpeed,600
;   allowThinWallGapFill,1
;   thinWallAllowedOverlapPercentage,10
G90
M82
M106 S0
M140 S65
M104 S235 T0
M109 S235 T0
G28 ; home all axes
G92 E0
G1 E-8.4 F3000
G1 Z0.66 F1200
; layer 1, Z = 0.56
T0
; tool H0.56 W0.7
G1 X28.801 Y25.45 F6000
G1 Z0.56 F1200
G1 E0.05 F900
G92 E0
G1 X-28.801 Y25.45 E9.3877 F1200
G1 X-29.702 Y25.077 E9.5465
G1 X-35.077 Y19.702 E10.7855
G1 X-35.45 Y18.801 E10.9443
G1 X-35.45 Y-18.801 E17.0725
G1 X-35.077 Y-19.702 E17.2314
G1 X-29.702 Y-25.077 E18.4703
G1 X-28.801 Y-25.45 E18.6292
G1 X28.801 Y-25.45 E28.0168
G1 X29.702 Y-25.077 E28.1757
G1 X35.077 Y-19.702 E29.4146
G1 X35.45 Y-18.801 E29.5735
G1 X35.45 Y18.801 E35.7017
G1 X35.077 Y19.702 E35.8605
G1 X29.702 Y25.077 E37.0995
G1 X28.801 Y25.45 E37.2583
G1 X28.662 Y24.75 F6000
G92 E0
G1 X-28.662 Y24.75 E9.3423 F1200
G1 X-29.305 Y24.484 E9.4558
G1 X-34.484 Y19.305 E10.6493
G1 X-34.75 Y18.662 E10.7628
G1 X-34.75 Y-18.662 E16.8456
G1 X-34.484 Y-19.305 E16.959
G1 X-29.305 Y-24.484 E18.1526
G1 X-28.662 Y-24.75 E18.2661
G1 X28.662 Y-24.75 E27.6084
G1 X29.305 Y-24.484 E27.7218
G1 X34.484 Y-19.305 E28.9154
G1 X34.75 Y-18.662 E29.0289
G1 X34.75 Y18.662 E35.1117
G1 X34.484 Y19.305 E35.2251
G1 X29.305 Y24.484 E36.4187
G1 X28.662 Y24.75 E36.5321
G1 X28.523 Y24.05 F6000
G92 E0
G1 X-28.523 Y24.05 E9.2969 F1200
G1 X-28.908 Y23.89 E9.365
G1 X-33.89 Y18.908 E10.5132
G1 X-34.05 Y18.523 E10.5812
G1 X-34.05 Y-18.523 E16.6187
G1 X-33.89 Y-18.908 E16.6867
G1 X-28.908 Y-23.89 E17.8349
G1 X-28.523 Y-24.05 E17.903
G1 X28.523 Y-24.05 E27.1999
G1 X28.908 Y-23.89 E27.268
G1 X33.89 Y-18.908 E28.4162
G1 X34.05 Y-18.523 E28.4842
G1 X34.05 Y18.523 E34.5217
G1 X33.89 Y18.908 E34.5897
G1 X28.908 Y23.89 E35.7379
G1 X28.523 Y24.05 E35.806
G1 X28.383 Y23.35 F6000
G92 E0
G1 X-28.383 Y23.35 E9.2515 F1200
G1 X-28.512 Y23.297 E9.2742
G1 X-33.297 Y18.512 E10.377
G1 X-33.35 Y18.383 E10.3997
G1 X-33.35 Y-18.383 E16.3917
G1 X-33.297 Y-18.512 E16.4144
G1 X-28.512 Y-23.297 E17.5172
G1 X-28.383 Y-23.35 E17.5399
G1 X28.383 Y-23.35 E26.7914
G1 X28.512 Y-23.297 E26.8141
G1 X33.297 Y-18.512 E27.9169
G1 X33.35 Y-18.383 E27.9396
G1 X33.35 Y18.383 E33.9317
G1 X33.297 Y18.512 E33.9543
G1 X28.512 Y23.297 E35.0571
G1 X28.383 Y23.35 E35.0798
G92 E0
G1 E-8.4 F3000
G1 Z0.66 F1200
G1 X22.55 Y12.55 F6000
G1 Z0.56 F1200
G1 E0.05 F3000
G92 E0
G1 X-22.55 Y12.55 E7.3502 F975
G1 X-22.55 Y-12.55 E11.4408
G1 X22.55 Y-12.55 E18.791
G1 X22.55 Y12.55 E22.8816
G1 X23.25 Y13.25 F6000
G92 E0
G1 X-23.25 Y13.25 E7.5783 F750
G1 X-23.25 Y-13.25 E11.8972
G1 X23.25 Y-13.25 E19.4755
G1 X23.25 Y13.25 E23.7943
G1 X23.95 Y13.95 F6000
G92 E0
G1 X-23.95 Y13.95 E7.8065 F525
G1 X-23.95 Y-13.95 E12.3535
G1 X23.95 Y-13.95 E20.16
G1 X23.95 Y13.95 E24.707
G1 X24.65 Y14.65 F6000
G92 E0
G1 X-24.65 Y14.65 E8.0347 F300
G1 X-24.65 Y-14.65 E12.8098
G1 X24.65 Y-14.65 E20.8445
G1 X24.65 Y14.65 E25.6196
G1 X22.2 Y12.195 F6000
G92 E0
G1 X22.2 Y12.2 E0.0008 F960
G1 X22.195 Y12.2 E0.0016
G1 X22.2 Y12.195 E0.0027
G1 X22.2 Y11.205 E0.1641
G1 X21.205 Y12.2 E0.3934
G1 X20.215 Y12.2 E0.5547
G1 X22.2 Y10.215 E1.0121
G1 X22.2 Y9.225 E1.1735
G1 X19.225 Y12.2 E1.8591
G1 X18.235 Y12.2 E2.0204
G1 X22.2 Y8.235 E2.9342
G1 X22.2 Y7.245 E3.0956
G1 X17.245 Y12.2 E4.2375
G1 X16.255 Y12.2 E4.3989
G1 X22.2 Y6.255 E5.769
G1 X22.2 Y5.265 E5.9303
G1 X15.265 Y12.2 E7.5286
G1 X14.276 Y12.2 E7.6899
G1 X22.2 Y4.276 E9.5164
G1 X22.2 Y3.286 E9.6777
G1 X13.286 Y12.2 E11.7323
G1 X12.296 Y12.2 E11.8936
G1 X22.2 Y2.296 E14.1764
G1 X22.2 Y1.306 E14.3378
G1 X11.306 Y12.2 E16.8487
G1 X10.316 Y12.2 E17.01
G1 X22.2 Y0.316 E19.7491
G1 X22.2 Y-0.674 E19.9105
G1 X9.326 Y12.2 E22.8777
G1 X8.336 Y12.2 E23.0391
G1 X22.2 Y-1.664 E26.2345
G1 X22.2 Y-2.654 E26.3958
G1 X7.346 Y12.2 E29.8194
G1 X6.356 Y12.2 E29.9808
G1 X22.2 Y-3.644 E33.6325
G1 X22.2 Y-4.634 E33.7939
G1 X5.366 Y12.2 E37.6738
G1 X4.376 Y12.2 E37.8351
G1 X22.2 Y-5.624 E41.9432
G1 X22.2 Y-6.614 E42.1046
G1 X3.386 Y12.2 E46.4408
G1 X2.396 Y12.2 E46.6021
G1 X22.2 Y-7.604 E51.1666
G1 X22.2 Y-8.594 E51.3279
G1 X1.406 Y12.2 E56.1205
G1 X0.416 Y12.2 E56.2818
G1 X22.2 Y-9.584 E61.3026
G1 X22.2 Y-10.574 E61.4639
G1 X-0.574 Y12.2 E66.7128
G1 X-1.564 Y12.2 E66.8742
G1 X22.2 Y-11.564 E72.3512
G1 X22.2 Y-12.2 E72.4549
G1 X21.846 Y-12.2 E72.5126
G1 X-2.554 Y12.2 E78.1363
G1 X-3.544 Y12.2 E78.2976
G1 X20.856 Y-12.2 E83.9214
G1 X19.866 Y-12.2 E84.0827
G1 X-4.534 Y12.2 E89.7065
G1 X-5.523 Y12.2 E89.8678
G1 X18.877 Y-12.2 E95.4915
G1 X17.887 Y-12.2 E95.6529
G1 X-6.513 Y12.2 E101.2766
G1 X-7.503 Y12.2 E101.4379
G1 X16.897 Y-12.2 E107.0617
G1 X15.907 Y-12.2 E107.223
G1 X-8.493 Y12.2 E112.8467
G1 X-9.483 Y12.2 E113.0081
G1 X14.917 Y-12.2 E118.6318
G1 X13.927 Y-12.2 E118.7931
G1 X-10.473 Y12.2 E124.4169
G1 X-11.463 Y12.2 E124.5782
G1 X12.937 Y-12.2 E130.202
G1 X11.947 Y-12.2 E130.3633
G1 X-12.453 Y12.2 E135.987
G1 X-13.443 Y12.2 E136.1484
G1 X10.957 Y-12.2 E141.7721
G1 X9.967 Y-12.2 E141.9334
G1 X-14.433 Y12.2 E147.5572
G1 X-15.423 Y12.2 E147.7185
G1 X8.977 Y-12.2 E153.3422
G1 X7.987 Y-12.2 E153.5036
G1 X-16.413 Y12.2 E159.1273
G1 X-17.403 Y12.2 E159.2887
G1 X6.997 Y-12.2 E164.9124
G1 X6.007 Y-12.2 E165.0737
G1 X-18.393 Y12.2 E170.6975
G1 X-19.383 Y12.2 E170.8588
G1 X5.017 Y-12.2 E176.4825
G1 X4.027 Y-12.2 E176.6439
G1 X-20.373 Y12.2 E182.2676
G1 X-21.363 Y12.2 E182.4289
G1 X3.037 Y-12.2 E188.0527
G1 X2.047 Y-12.2 E188.214
G1 X-22.2 Y12.047 E193.8026
G1 X-22.2 Y11.057 E193.9639
G1 X1.057 Y-12.2 E199.3243
G1 X0.067 Y-12.2 E199.4856
G1 X-22.2 Y10.067 E204.6179
G1 X-22.2 Y9.078 E204.7792
G1 X-0.922 Y-12.2 E209.6833
G1 X-1.912 Y-12.2 E209.8446
G1 X-22.2 Y8.088 E214.5205
G1 X-22.2 Y7.098 E214.6819
G1 X-2.902 Y-12.2 E219.1296
G1 X-3.892 Y-12.2 E219.2909
G1 X-22.2 Y6.108 E223.5105
G1 X-22.2 Y5.118 E223.6718
G1 X-4.882 Y-12.2 E227.6632
G1 X-5.872 Y-12.2 E227.8246
G1 X-22.2 Y4.128 E231.5878
G1 X-22.2 Y3.138 E231.7492
G1 X-6.862 Y-12.2 E235.2842
G1 X-7.852 Y-12.2 E235.4456
G1 X-22.2 Y2.148 E238.7525
G1 X-22.2 Y1.158 E238.9138
G1 X-8.842 Y-12.2 E241.9926
G1 X-9.832 Y-12.2 E242.1539
G1 X-22.2 Y0.168 E245.0045
G1 X-22.2 Y-0.822 E245.1658
G1 X-10.822 Y-12.2 E247.7883
G1 X-11.812 Y-12.2 E247.9496
G1 X-22.2 Y-1.812 E250.3438
G1 X-22.2 Y-2.802 E250.5052
G1 X-12.802 Y-12.2 E252.6713
G1 X-13.792 Y-12.2 E252.8326
G1 X-22.2 Y-3.792 E254.7705
G1 X-22.2 Y-4.782 E254.9319
G1 X-14.782 Y-12.2 E256.6416
G1 X-15.772 Y-12.2 E256.803
G1 X-22.2 Y-5.772 E258.2846
G1 X-22.2 Y-6.762 E258.4459
G1 X-16.762 Y-12.2 E259.6993
G1 X-17.752 Y-12.2 E259.8607
G1 X-22.2 Y-7.752 E260.8859
G1 X-22.2 Y-8.742 E261.0473
G1 X-18.742 Y-12.2 E261.8444
G1 X-19.732 Y-12.2 E262.0057
G1 X-22.2 Y-9.732 E262.5747
G1 X-22.2 Y-10.721 E262.736
G1 X-20.721 Y-12.2 E263.0768
G1 X-21.711 Y-12.2 E263.2381
G1 X-22.2 Y-11.711 E263.3507
G92 E0
G1 E-8.4 F3000
G1 Z1.06 F1200
; layer 2, Z = 0.96
M104 S245 T0
; tool H0.4 W0.7
G1 X-22.55 Y-12.55 F6000
G1 Z0.96 F1200
G1 E0.05 F3000
G92 E0
G1 X22.55 Y-12.55 E5.2501 F4875
G1 X22.55 Y12.55 E8.172
G1 X-22.55 Y12.55 E13.4221
G1 X-22.55 Y-12.55 E16.344
G1 X-23.25 Y-13.25 F6000
G92 E0
G1 X23.25 Y-13.25 E5.4131 F3750
G1 X23.25 Y13.25 E8.498
G1 X-23.25 Y13.25 E13.9111
G1 X-23.25 Y-13.25 E16.9959
G1 X-23.95 Y-13.95 F6000
G92 E0
G1 X23.95 Y-13.95 E5.5761 F2625
G1 X23.95 Y13.95 E8.8239
G1 X-23.95 Y13.95 E14.4
G1 X-23.95 Y-13.95 E17.6478
G1 X-24.65 Y-14.65 F6000
G92 E0
G1 X24.65 Y-14.65 E5.739 F1500
G1 X24.65 Y14.65 E9.1499
G1 X-24.65 Y14.65 E14.8889
G1 X-24.65 Y-14.65 E18.2997
G1 X-22.195 Y12.2 F6000
G92 E0
G1 X-22.2 Y12.2 E0.0006 F4800
G1 X-22.2 Y12.195 E0.0011
G1 X-22.195 Y12.2 E0.0019
G1 X-21.205 Y12.2 E0.1172
G1 X-22.2 Y11.205 E0.281
G1 X-22.2 Y10.215 E0.3962
G1 X-20.215 Y12.2 E0.723
G1 X-19.225 Y12.2 E0.8382
G1 X-22.2 Y9.225 E1.3279
G1 X-22.2 Y8.235 E1.4432
G1 X-18.235 Y12.2 E2.0959
G1 X-17.245 Y12.2 E2.2111
G1 X-22.2 Y7.245 E3.0268
G1 X-22.2 Y6.255 E3.142
G1 X-16.255 Y12.2 E4.1207
G1 X-15.265 Y12.2 E4.2359
G1 X-22.2 Y5.265 E5.3776
G1 X-22.2 Y4.276 E5.4928
G1 X-14.276 Y12.2 E6.7974
G1 X-13.286 Y12.2 E6.9126
G1 X-22.2 Y3.286 E8.3802
G1 X-22.2 Y2.296 E8.4955
G1 X-12.296 Y12.2 E10.126
G1 X-11.306 Y12.2 E10.2413
G1 X-22.2 Y1.306 E12.0348
G1 X-22.2 Y0.316 E12.15
G1 X-10.316 Y12.2 E14.1065
G1 X-9.326 Y12.2 E14.2218
G1 X-22.2 Y-0.674 E16.3412
G1 X-22.2 Y-1.664 E16.4565
G1 X-8.336 Y12.2 E18.7389
G1 X-7.346 Y12.2 E18.8542
G1 X-22.2 Y-2.654 E21.2996
G1 X-22.2 Y-3.644 E21.4148
G1 X-6.356 Y12.2 E24.0232
G1 X-5.366 Y12.2 E24.1385
G1 X-22.2 Y-4.634 E26.9099
G1 X-22.2 Y-5.624 E27.0251
G1 X-4.376 Y12.2 E29.9594
G1 X-3.386 Y12.2 E30.0747
G1 X-22.2 Y-6.614 E33.172
G1 X-22.2 Y-7.604 E33.2872
G1 X-2.396 Y12.2 E36.5475
G1 X-1.406 Y12.2 E36.6628
G1 X-22.2 Y-8.594 E40.0861
G1 X-22.2 Y-9.584 E40.2013
G1 X-0.416 Y12.2 E43.7876
G1 X0.574 Y12.2 E43.9028
G1 X-22.2 Y-10.574 E47.652
G1 X-22.2 Y-11.564 E47.7673
G1 X1.564 Y12.2 E51.6795
G1 X2.554 Y12.2 E51.7947
G1 X-21.846 Y-12.2 E55.8116
G1 X-20.856 Y-12.2 E55.9269
G1 X3.544 Y12.2 E59.9438
G1 X4.534 Y12.2 E60.0591
G1 X-19.866 Y-12.2 E64.076
G1 X-18.877 Y-12.2 E64.1913
G1 X5.523 Y12.2 E68.2082
G1 X6.513 Y12.2 E68.3235
G1 X-17.887 Y-12.2 E72.3404
G1 X-16.897 Y-12.2 E72.4557
G1 X7.503 Y12.2 E76.4726
G1 X8.493 Y12.2 E76.5879
G1 X-15.907 Y-12.2 E80.6048
G1 X-14.917 Y-12.2 E80.7201
G1 X9.483 Y12.2 E84.737
G1 X10.473 Y12.2 E84.8522
G1 X-13.927 Y-12.2 E88.8692
G1 X-12.937 Y-12.2 E88.9844
G1 X11.463 Y12.2 E93.0014
G1 X12.453 Y12.2 E93.1166
G1 X-11.947 Y-12.2 E97.1336
G1 X-10.957 Y-12.2 E97.2488
G1 X13.443 Y12.2 E101.2658
G1 X14.433 Y12.2 E101.381
G1 X-9.967 Y-12.2 E105.398
G1 X-8.977 Y-12.2 E105.5132
G1 X15.423 Y12.2 E109.5302
G1 X16.413 Y12.2 E109.6454
G1 X-7.987 Y-12.2 E113.6624
G1 X-6.997 Y-12.2 E113.7776
G1 X17.403 Y12.2 E117.7946
G1 X18.393 Y12.2 E117.9098
G1 X-6.007 Y-12.2 E121.9268
G1 X-5.017 Y-12.2 E122.042
G1 X19.383 Y12.2 E126.059
G1 X20.373 Y12.2 E126.1742
G1 X-4.027 Y-12.2 E130.1911
G1 X-3.037 Y-12.2 E130.3064
G1 X21.363 Y12.2 E134.3233
G1 X22.2 Y12.2 E134.4208
G1 X22.2 Y12.047 E134.4386
G1 X-2.047 Y-12.2 E138.4304
G1 X-1.057 Y-12.2 E138.5457
G1 X22.2 Y11.057 E142.3745
G1 X22.2 Y10.067 E142.4897
G1 X-0.067 Y-12.2 E146.1556
G1 X0.922 Y-12.2 E146.2709
G1 X22.2 Y9.078 E149.7738
G1 X22.2 Y8.088 E149.889
G1 X1.912 Y-12.2 E153.2289
G1 X2.902 Y-12.2 E153.3442
G1 X22.2 Y7.098 E156.5211
G1 X22.2 Y6.108 E156.6364
G1 X3.892 Y-12.2 E159.6504
G1 X4.882 Y-12.2 E159.7656
G1 X22.2 Y5.118 E162.6166
G1 X22.2 Y4.128 E162.7318
G1 X5.872 Y-12.2 E165.4199
G1 X6.862 Y-12.2 E165.5351
G1 X22.2 Y3.138 E168.0602
G1 X22.2 Y2.148 E168.1754
G1 X7.852 Y-12.2 E170.5375
G1 X8.842 Y-12.2 E170.6527
G1 X22.2 Y1.158 E172.8518
G1 X22.2 Y0.168 E172.9671
G1 X9.832 Y-12.2 E175.0032
G1 X10.822 Y-12.2 E175.1185
G1 X22.2 Y-0.822 E176.9916
G1 X22.2 Y-1.812 E177.1068
G1 X11.812 Y-12.2 E178.817
G1 X12.802 Y-12.2 E178.9323
G1 X22.2 Y-2.802 E180.4795
G1 X22.2 Y-3.792 E180.5947
G1 X13.792 Y-12.2 E181.979
G1 X14.782 Y-12.2 E182.0942
G1 X22.2 Y-4.782 E183.3155
G1 X22.2 Y-5.772 E183.4307
G1 X15.772 Y-12.2 E184.489
G1 X16.762 Y-12.2 E184.6042
G1 X22.2 Y-6.762 E185.4995
G1 X22.2 Y-7.752 E185.6148
G1 X17.752 Y-12.2 E186.3471
G1 X18.742 Y-12.2 E186.4623
G1 X22.2 Y-8.742 E187.0317
G1 X22.2 Y-9.732 E187.1469
G1 X19.732 Y-12.2 E187.5533
G1 X20.721 Y-12.2 E187.6686
G1 X22.2 Y-10.721 E187.912
G1 X22.2 Y-11.711 E188.0272
G1 X21.711 Y-12.2 E188.1077
G92 E0
G1 E-8.4 F3000
G1 Z1.46 F1200
; layer 3, Z = 1.36
G1 X22.55 Y-12.55 F6000
G1 Z1.36 F1200
G1 E0.05 F3000
G92 E0
G1 X22.55 Y12.55 E2.9219 F4875
G1 X-22.55 Y12.55 E8.172
G1 X-22.55 Y-12.55 E11.0939
G1 X22.55 Y-12.55 E16.344
G1 X23.25 Y-13.25 F6000
G92 E0
G1 X23.25 Y13.25 E3.0849 F3750
G1 X-23.25 Y13.25 E8.498
G1 X-23.25 Y-13.25 E11.5828
G1 X23.25 Y-13.25 E16.9959
G1 X23.95 Y-13.95 F6000
G92 E0
G1 X23.95 Y13.95 E3.2479 F2625
G1 X-23.95 Y13.95 E8.8239
G1 X-23.95 Y-13.95 E12.0718
G1 X23.95 Y-13.95 E17.6478
G1 X24.65 Y-14.65 F6000
G92 E0
G1 X24.65 Y14.65 E3.4108 F1500
G1 X-24.65 Y14.65 E9.1499
G1 X-24.65 Y-14.65 E12.5607
G1 X24.65 Y-14.65 E18.2997
G1 X21.391 Y12.2 F6000
G92 E0
